usr/share/icons/biglinux-icons-material/scalable/apps/slimjet.svg

<?xml version="1.0" encoding="UTF-8" standalone="no"?>
<svg
   width="24"
   height="24"
   viewBox="0 0 6.349875 6.349875"
   version="1.1"
   id="svg1"
   sodipodi:docname="slimjet.svg"
   inkscape:version="1.3 (0e150ed6c4, 2023-07-21)"
   xmlns:inkscape="http://www.inkscape.org/namespaces/inkscape"
   xmlns:sodipodi="http://sodipodi.sourceforge.net/DTD/sodipodi-0.dtd"
   xmlns="http://www.w3.org/2000/svg"
   xmlns:svg="http://www.w3.org/2000/svg">
  <defs
     id="defs1">
    <radialGradient
       fx="0"
       fy="0"
       cx="0"
       cy="0"
       r="1"
       gradientUnits="userSpaceOnUse"
       gradientTransform="matrix(0,5.8207187,-5.8207187,0,3.1746946,0.26456351)"
       spreadMethod="pad"
       id="radialGradient868-3">
      <stop
         style="stop-color:#b6fdef;stop-opacity:1;"
         offset="0"
         id="stop864-6" />
      <stop
         style="stop-color:#1cd2ac;stop-opacity:1;"
         offset="1"
         id="stop866-7" />
    </radialGradient>
  </defs>
  <sodipodi:namedview
     id="namedview1"
     pagecolor="#ffffff"
     bordercolor="#000000"
     borderopacity="0.25"
     inkscape:showpageshadow="2"
     inkscape:pageopacity="0.0"
     inkscape:pagecheckerboard="0"
     inkscape:deskcolor="#d1d1d1"
     inkscape:zoom="6.3359375"
     inkscape:cx="1.4204686"
     inkscape:cy="22.648582"
     inkscape:window-width="2560"
     inkscape:window-height="998"
     inkscape:window-x="0"
     inkscape:window-y="0"
     inkscape:window-maximized="1"
     inkscape:current-layer="svg1" />
  <path
     d="m 2.5380664,0.29490709 c 0.031749,0 0.062088,-0.004233 0.091015,-0.012347 0.3802869,-0.0250467 0.7605739,-0.0236356 1.1398025,0.002822 0.3443044,0.0275161 0.6776728,0.10195077 1.0004581,0.22436225 0.5358589,0.22048177 0.9023878,0.60359086 1.1009978,1.14791626 0.1114756,0.3280769 0.1788548,0.6656786 0.1996683,1.011394 0.027516,0.435672 0.017991,0.8695801 -0.030338,1.303841 C 6.0026287,4.277337 5.9239608,4.5694312 5.8026077,4.8505896 5.5778927,5.3384716 5.2127748,5.6746623 4.7086653,5.8591614 4.3005095,5.9970948 3.8803594,6.0701184 3.4475096,6.0771738 2.9624497,6.1032788 2.4816231,6.0658851 2.0050297,5.9681676 1.1298053,5.7737909 0.58830204,5.239343 0.3844005,4.3655297 0.29761887,3.9728958 0.257403,3.5746175 0.2658695,3.172106 0.25634469,2.7449005 0.30149935,2.3219283 0.40239181,1.9056587 0.61722925,1.0900525 1.1354496,0.58417917 1.9567001,0.38874413 2.1482546,0.34182561 2.3426314,0.31007624 2.5380664,0.29490709 Z"
     style="fill:url(#radialGradient868-3);fill-rule:evenodd;stroke:none;stroke-width:0.352771"
     id="path870" />
  <path
     d="M 4.8381118,3.1778836 3.6950231,3.4870283 2.2046866,4.6301172 2.8606865,3.4870283 1.9277531,3.3829326 1.5117632,3.7985298 1.7199544,3.1751339 1.5117632,2.5513453 1.9277531,2.9669424 2.8657926,2.8636324 2.2042937,1.7197578 3.6938447,2.8628467 4.837719,3.1778836 Z"
     fill="#ffffff"
     style="isolation:isolate;stroke-width:1"
     id="path2" />
</svg>

<svg xmlns="http://www.w3.org/2000/svg" width="24" height="24" viewBox="0 0 6.35 6.35"><defs><radialGradient id="a" cx="0" cy="0" r="1" fx="0" fy="0" gradientTransform="rotate(90 1.455 1.72) scale(5.82072)" gradientUnits="userSpaceOnUse" spreadMethod="pad"><stop offset="0" style="stop-color:#b6fdef;stop-opacity:1"/><stop offset="1" style="stop-color:#1cd2ac;stop-opacity:1"/></radialGradient></defs><path d="M2.538.295A.335.335 0 0 0 2.63.283c.38-.025.76-.024 1.14.002a3.62 3.62 0 0 1 1 .225c.536.22.903.603 1.101 1.148.112.328.18.665.2 1.011.028.436.018.87-.03 1.304a3.166 3.166 0 0 1-.237.878c-.225.487-.59.824-1.094 1.008a4.125 4.125 0 0 1-1.261.218 5.644 5.644 0 0 1-1.443-.109C1.13 5.774.588 5.24.385 4.366a5.025 5.025 0 0 1-.12-1.194c-.009-.427.036-.85.137-1.266C.617 1.09 1.135.584 1.957.389c.191-.047.386-.079.581-.094Z" style="fill:url(#a);fill-rule:evenodd;stroke:none;stroke-width:.352771"/><path fill="#fff" d="m4.838 3.178-1.143.309-1.49 1.143.656-1.143-.933-.104-.416.416.208-.624-.208-.624.416.416.938-.103-.662-1.144 1.49 1.143 1.144.315Z" style="isolation:isolate;stroke-width:1"/></svg>
